X:11633
T:Nancy Under't Hill. BF11.19
M:6/8
Q:120
C:Browne A hand
S:MS11,c1800.,Browne Coll.,Lakes
R:Jig
O:England
A:Lakes
Z:vmp.Chris Partington
K:D
d3faf|e2dc2A|A2cd3|BAG FED|d3faf|e2dc2A|Bcd edc|d3D3::!
f2ga3|b2fg3|f2dc2d|e3A3|B2dc2e|d2fg3|faf edc|d3D3|]
